packages/icons/src/svg/connections.svg

<svg xmlns="http://www.w3.org/2000/svg" viewBox="0 0 16 16">
  <path d="M14.9024912,6.50230678 C14.2152555,5.8150711 13.3006037,5.43604417 12.3271029,5.43604417 C11.9750068,5.43604417 11.6378724,5.50187516 11.3087174,5.5966319 L9.75470696,3.14193379 C9.77166343,3.1269722 9.79161222,3.11500292 9.80856869,3.09804646 C10.1506904,2.75592478 10.3402038,2.30009502 10.3402038,1.81434208 C10.3402038,1.32958658 10.1506904,0.873756824 9.80856869,0.531635145 C9.46544957,0.188516027 9.00961981,0 8.52486431,0 C8.04010881,0 7.58427905,0.188516027 7.24115994,0.531635145 C6.53297804,1.23881961 6.53297804,2.39086199 7.24115994,3.09804646 C7.58427905,3.44116557 8.04010881,3.6296816 8.52486431,3.6296816 C8.70440338,3.6296816 8.87696038,3.59576867 9.04453018,3.5458967 L10.5486686,5.91680991 C10.2624036,6.07739764 9.99010264,6.26391878 9.75171465,6.50230678 C9.35772612,6.8962953 9.07844312,7.36908153 8.90089893,7.87977045 L3.6284348,5.89686112 C3.62943224,5.43005953 3.45288549,4.96325794 3.0977971,4.60816955 C2.75467798,4.26505043 2.29884822,4.07653441 1.81409272,4.07653441 C1.32933722,4.07653441 0.873507464,4.26505043 0.530388346,4.60816955 C-0.176796115,5.31635145 -0.176796115,6.4673964 0.530388346,7.17458086 C0.873507464,7.51769998 1.32933722,7.70721345 1.81409272,7.70721345 C2.29884822,7.70721345 2.75467798,7.51769998 3.0977971,7.1755783 C3.24242579,7.02995216 3.35014924,6.86437724 3.43493158,6.68982536 L8.72335473,8.67672444 C8.70939058,8.81038131 8.6844546,8.9420433 8.6844546,9.07869248 C8.6844546,9.72004595 8.86399367,10.3284839 9.17319985,10.8710909 L6.48111119,12.8360463 C6.14198183,12.5098837 5.69911878,12.3283497 5.22733,12.3283497 C4.7425745,12.3283497 4.28674474,12.5178632 3.94362562,12.8609823 C3.6005065,13.203104 3.41199048,13.6589337 3.41199048,14.1436892 C3.41199048,14.6284447 3.6005065,15.0842745 3.94362562,15.4273936 C4.28674474,15.7705127 4.7425745,15.9590288 5.22733,15.9590288 C5.71208549,15.9590288 6.16791525,15.7705127 6.51103437,15.4273936 C7.02571305,14.9127149 7.16136479,14.1646355 6.92696656,13.5212871 L9.65496303,11.5363829 C9.68887597,11.5742856 9.71480939,11.6171755 9.75171465,11.6540807 C10.4389503,12.3413164 11.3536022,12.7203434 12.3271029,12.7203434 C13.3006037,12.7203434 14.2152555,12.3413164 14.9024912,11.6540807 C15.5907243,10.9658476 15.9697512,10.0511958 15.9697512,9.07869248 C15.9697512,8.10519173 15.5907243,7.19053989 14.9024912,6.50230678"/>
</svg>

<svg xmlns="http://www.w3.org/2000/svg" viewBox="0 0 16 16">
	<path d="M14.902 6.502a3.618 3.618 0 0 0-2.575-1.066c-.352 0-.69.066-1.018.16L9.755 3.143c.017-.015.037-.027.054-.044.342-.342.531-.798.531-1.284 0-.484-.19-.94-.531-1.282A1.803 1.803 0 0 0 8.525 0a1.816 1.816 0 0 0 0 3.63c.18 0 .352-.034.52-.084l1.504 2.37c-.287.161-.559.348-.797.586A3.605 3.605 0 0 0 8.9 7.88L3.628 5.897a1.81 1.81 0 0 0-1.814-1.82c-.485 0-.94.188-1.284.531a1.817 1.817 0 0 0 1.284 3.1c.485 0 .94-.19 1.284-.532.144-.146.252-.312.337-.486l5.288 1.987c-.014.133-.039.265-.039.402 0 .641.18 1.25.49 1.792L6.48 12.836a1.804 1.804 0 0 0-2.537.025 1.8 1.8 0 0 0-.532 1.283c0 .484.189.94.532 1.283.343.344.799.532 1.283.532a1.813 1.813 0 0 0 1.7-2.438l2.728-1.985c.034.038.06.081.097.118a3.618 3.618 0 0 0 2.575 1.066c.974 0 1.888-.379 2.575-1.066A3.619 3.619 0 0 0 15.97 9.08a3.62 3.62 0 0 0-1.068-2.577"/>
</svg>
